X: 37
K:F
M:6/8
|: B/2c/2|d2 A A B2| c3 F>GA/2B/2| GAF/2G/2 E>DE/2F/2| D3 D2:|
|: B/2c/2|d2 A A B2| c3 F>GA/2B/2| GAF/2G/2 E>DE/2F/2| D3 D2:|

